!!!COM: Johannes Brahms
!!!CNT: Deutscher
!!!TXO: Deutsche
!!!OTL: O komme, holde Sommernacht
!!!OPS: Op. 58
!!!ONM: No. 4
!!!LYR: Grohe
!!!ONB: Original key: F# Major
!!!ENC: Ayako Kataoka        
!!!EED: Leigh VanHandel
!!!YOR: C.F. Peters, Brahms Lieder fu2r eine Singstimme mit Klavierbegleitung, Band III, ausgabe fu2r tiefere Stimme
!!!ODT: 1871/
!!NB: Vocal melody and text only encoded.
**kern	**silbe
*clefG2	*
*k[f#c#g#d#]	*
*M4/4	*
*MM[vivace]	*
!! tempo indication: Lebhaft und heimlich
=1	=1
2r	.
4r	.
{4B	{O
=2	=2
4.e	kom-
8f#	-me,
4g#	hol-
4B	-de
=3	=3
4.g#	Som-
8f#	-mer
4b	nacht,
4f#	ver-
=4	=4
1cc#	-schwie-
=5	=5
2b}	-gen;}
4r	.
{4g#	{dich
=6	=6
4.f#	hat
8g#	die
4f#	Lie-
4cc#	-be
=7	=7
4.b	recht
8g#	ge-
4f#	-macht
4cc#	zum
=8	=8
1b	Sie-
=9	=9
2B}	-gen!}
4r	.
{4B	{O
=10	=10
4.e	kom-
8f#	-me,
4g#	hol-
4B	-de
=11	=11
4.g#	Som-
8f#	-mer
4b	nacht,
4f#	ver-
=12	=12
1cc#	-schwie-
=13	=13
2b}	-gen;}
4r	.
{4g#	{dich
=14	=14
4.f#	hat
8g#	die
4f#	Lie-
4cc#	-be
=15	=15
4.b	recht
8g#	ge-
4f#	-macht
4cc#	zum
=16	=16
1b	Sie-
=17	=17
4B}	-gen!}
4r	.
4r	.
{4B	{Da
=18	=18
4.a	bre-
8a	-chen
4a	man-
4gn	-che
=19	=19
4.b	Knos-
8b	-pen
4b}	los,}
{4a	{ver-
=20	=20
([2ccn	-stoh-
8cc]	|
8b	|
8a	|
8b)	|
=21	=21
4ccn}	-len,}
4r	.
4r	.
{4cn	{da
=22	=22
4.b-	o2ff-
8b-	-nen
4b-	ih-
4a	-ren
=23	=23
(8ddn	su2-
8ccn)	|
(8a	-ssen
8f#)	|
4g#	Schoss
4a	Vi-
=24	=24
[1bn	-o-
=25	=25
2b]	|
4e}	-len,}
{4e	{da
=26	=26
4.a	neigt
8b	ihr
4cc#	Haupt
4e	im
=27	=27
4.cc#	Da2m-
8b	-mer-
4ee	schein
4b	die
=28	=28
1ddn	Ro-
=29	=29
4cc#}	-se,}
4r	.
{2ccn	{da
=30	=30
4.b	wird
8g#	mein
4f#	Lieb-
4a#	-chen
=31	=31
4.b	auch
8g#	noch
4f#	mein,
4cc#	das
=32	=32
1ee	lo-
=33	=33
4b}	-se,}
4r	.
{2b	{das
=34	=34
[1ee	lo-
=35	=35
2ee]	|
4e}	-se!}
4r	.
*-	*-
